src/images/circuits/italian.svg

<svg width="40" height="21" viewBox="0 0 40 21" fill="none" xmlns="http://www.w3.org/2000/svg">
<path d="M17.5153 19.6339C21.534 19.5551 31.7676 19.2976 32.881 19.2402C33.9945 19.1827 35.8634 19.1524 37.6818 18.4251C39.9548 17.5159 38.8435 14.8388 37.6565 14.8388C36.4695 14.8388 22.3769 14.8135 21.8466 14.8388C21.3162 14.864 20.8363 14.1064 20.2807 13.8791C19.9074 13.7264 19.1161 13.8242 18.5979 13.9243C18.4336 13.9561 18.2626 13.9114 18.1403 13.7972L10.2385 6.41071C10.2154 6.38908 10.1944 6.3653 10.1757 6.33969L6.45431 1.22691C6.35173 1.08598 6.18355 1.0083 6.01 1.02456C5.10278 1.10955 3.54457 1.30111 2.8544 1.55538C1.89469 1.90896 1.21315 2.43879 1.0111 2.91864C0.854995 3.2894 2.38241 6.35971 3.24544 8.00259C3.30277 8.11171 3.3985 8.19513 3.51417 8.23772L3.62247 8.2776C3.9486 8.3977 4.20854 8.8811 4.21708 9.22854C4.23189 9.83059 4.34384 10.8672 4.6715 12.5424C5.30189 16.8763 6.95791 18.6944 10.5008 19.5011C12.5796 19.9745 13.9713 19.3152 14.9309 18.7305C15.2375 18.5437 15.6244 18.7545 15.6243 19.1135C15.6243 19.3599 15.8185 19.5624 16.0646 19.5728L17.5153 19.6339Z" stroke="#FF0000"/>
</svg>

<svg width="40" height="21" fill="none" xmlns="http://www.w3.org/2000/svg"><path d="M17.515 19.634c4.019-.079 14.253-.336 15.366-.394 1.114-.057 2.982-.088 4.8-.815 2.274-.91 1.163-3.586-.024-3.586-1.188 0-15.28-.026-15.81 0-.53.025-1.01-.733-1.566-.96-.374-.153-1.165-.055-1.683.045a.523.523 0 0 1-.458-.127l-7.902-7.386a.506.506 0 0 1-.062-.071L6.454 1.227a.493.493 0 0 0-.444-.202c-.907.085-2.465.276-3.156.53-.96.354-1.64.884-1.843 1.364-.156.37 1.371 3.44 2.234 5.084.058.109.153.192.27.235l.107.04c.327.12.587.603.595.95.015.603.127 1.64.455 3.314.63 4.334 2.286 6.152 5.829 6.96 2.079.473 3.47-.187 4.43-.771a.451.451 0 0 1 .693.382.46.46 0 0 0 .44.46l1.451.06Z" stroke="red"/></svg>
